X:1
T:Suomen laulu
T:Suomen laulu
T:SATB
T:F. Pacius
C:F. Pacius
%%score [ 1 2 3 4 ]
L:1/8
Q:1/4=65
M:3/4
K:G
V:1 treble nm="Soprano" snm="S."
V:2 treble nm="Alto" snm="A."
V:3 bass nm="Tenor" snm="T."
V:4 bass nm="Bass" snm="B."
V:1
!p! E3/2!<(! F/ G3/2 A/ B3/2 c/!<)! |!>(! B>G E2!>)!!pp! G G |[Q:1/4=50]!<(! G3 G A ^A!<)! | %3
w: Kuu- le kuin- ka soit- to|kai- * kuu, Väi- nön|kan- te- lees- ta|
w: Kaik- ki- al- la ää- ni|kai- * kuu, kaik- ki-|al- la kie- let|
 B3/2!>(!A/4G/4 !fermata!F2!>)![Q:1/4=65] B B |!f! e4 c2 |!<(! B4 B ^c!<)! |!ff! d4 d2 | %7
w: rai- * * kuu! Lau- lu|Suo- men|on, lau- lu|Suo- men|
w: rai- * * kuu! * *||||
 !fermata!d4 z2 |:!p![Q:1/4=80]!<(! B3/2 ^A/ B3/2 A/ B3/2 e/!<)! |!>(! e2 ^d2 z2!>)! | %10
w: on!|Kuu- le, hon- gat huo- kai-|lee- pi,|
w: |Sy- dän- tä jos suo- tu|sul- le,|
!<(! B3/2 ^A/ B3/2 A/ B3/2 e/!<)! |!>(! e2 ^d2!>)! B B |!f!!>(! g4 f2 | e4!>)! !>!e !>!f | %14
w: kuu- le kos- ket pau- hai-|lee- pi! Lau- lu|Suo- men|on, lau- lu|
w: Mur- heess' i- los- sa- kin|kuu- le Suo- men|lau- lu-|a, Suo- men|
!>(! B4 ^d2!>)! | !fermata!e4 z2 :| %16
w: Suo- men|on!|
w: lau- lu-|a!|
V:2
!p! E3/2!<(! F/ G3/2 A/ B3/2 c/!<)! |!>(! B>G E2!>)!!pp! E E |!<(! E3 E E E!<)! | %3
w: Kuu- le kuin- ka soit- to|kai- * kuu, Väi- nön|kan- te- lees- ta|
w: Kaik- ki- al- la ää- ni|kai- * kuu, kaik- ki-|al- la kie- let|
 E3/2!>(!F/4E/4 !fermata!^D2!>)! z2 | z2!f! G G E E |!<(! E4 G G!<)! |!ff! (G2 !>!F!>!A) !>!G!>!F | %7
w: rai- * * kuu!|Lau- lu Suo- men|on, lau- lu|Suo- * * men *|
w: rai- * * kuu!||||
 !fermata!G4 z2 |:!p!!<(! G3/2 G/ G3/2 G/ G3/2 G/!<)! |!>(! A2 A2 z2!>)! | %10
w: on!|Kuu- le, hon- gat huo- kai-|lee- pi,|
w: |Sy- dän- tä jos suo- tu|sul- le,|
!<(! G3/2 G/ G3/2 G/ G3/2 G/!<)! |!>(! A2 A2!>)! B B |!f!!>(! B2 A4 | G2 E2!>)! !>!E !>!E | %14
w: kuu- le kos- ket pau- hai-|lee- pi! Lau- lu|Suo- men|on, niin, lau- lu|
w: Mur- heess' i- los- sa- kin|kuu- le! Suo- men|lau- lu-|a, niin, Suo- men|
!>(! (G2 F2) A2!>)! | !fermata!G4 z2 :| %16
w: Suo- * men|on!|
w: lau- * lu-|a!|
V:3
!p! E,3/2!<(! F,/ G,3/2 A,/ B,3/2 C/!<)! |!>(! B,>G, E,2!>)!!pp! B, B, |!<(! C3 G, F, F,!<)! | %3
w: Kuu- le kuin- ka soit- to|kai- * kuu, Väi- nön|kan- te- lees- ta|
w: Kaik- ki- al- la ää- ni|kai- * kuu, kaik- ki-|al- la kie- let|
 G,>!>(!B, !fermata!B,2!>)! z2 | z2!f! B, B, C A, |!<(! G,4 G, G,!<)! |!ff! (A,3 C) B,A, | %7
w: rai- * kuu!|Lau- lu Suo- men|on, lau- lu|Suo- * men *|
w: rai- * kuu!||||
 !fermata!B,4 z2 |:!p!!<(! z2 z2 B,2-!<)! |!>(! B,3/2 C/ B,3/2 C/ B,3/2 C/!>)! | %10
w: on!|Kuu-|* le, hon- gat huo- kai-|
w: |Sy-|* dän- tä jos suo- tu|
!<(! B,G, E,2 B,3/2 B,/!<)! |!>(! B,3/2 C/ B,3/2 C/!>)! B, B, |!f!!>(! B,2 ^D4 | %13
w: lee- * pi, kos- ket|pau- hai- lee- pi! Lau- lu|Suo- men|
w: sul- * le, mur- heess',|i- loss' kuu- le Suo- men|lau- lu-|
 E2 B,2!>)! !>!C !>!C |!>(! (B,2 A,2) F,B,!>)! | !fermata!B,4 z2 :| %16
w: on, niin, lau- lu|Suo- * men *|on!|
w: a, niin, Suo- men|lau- * lu- *|a!|
V:4
!p! E,3/2!<(! F,/ G,3/2 A,/ B,3/2 C/!<)! |!>(! B,>G, E,2!>)!!pp! E, E, |!<(! C,3 C, C, C,!<)! | %3
w: Kuu- le kuin- ka soit- to|kai- * kuu, Väi- nön|kan- te- lees- ta|
w: Kaik- ki- al- la ää- ni|kai- * kuu, kaik- ki-|al- la kie- let|
 B,,2 !fermata!B,,2 z2 | z2!f! E, E, A,, C, |!<(! E,4 E, _E,!<)! |!ff! D,4 D,2 | %7
w: rai- kuu!|Lau- lu Suo- men|on, lau- lu|Suo- men|
w: rai- kuu!||||
 !fermata!G,,4 z2 |:!p!!<(! E,3/2 E,/ E,3/2 E,/ E,3/2 E,/!<)! |!>(! F,2 F,2 z2!>)! | %10
w: on!|Kuu- le, hon- gat huo- kai-|lee- pi,|
w: |Sy- dän- tä jos suo- tu|sul- le,|
!<(! E,3/2 E,/ E,3/2 E,/ E,3/2 E,/!<)! |!>(! F,2 F,2!>)! B, B, |!f!!>(! E,2 B,,4 | %13
w: kuu- le kos- ket pau- hai-|lee- pi! Lau- lu|Suo- men|
w: Mur- heess' i- los- sa- kin|kuu- le! Suo- men|lau- lu-|
 C,2 G,,2!>)! !>!A,, !>!A,, |!>(! B,,4 B,,2!>)! | !fermata![E,,E,]4 z2 :| %16
w: on, niin, lau- lu|Suo- men|on!|
w: a, niin, Suo- men|lau- lu-|a!|

